!!!OTL: Der Schlemmer.
!!!OTL-incipit: NUN SCHUERZ DICH GRETLEIN
!!!ARE: Europa, Mitteleuropa, Deutschland, Sachsen
!!!SCT: Z1105
!!!TXL: @@DE
!!!YEM: Copyright 1995, estate of Helmut Schaffrath.
**kern	**text
*ICvox	*
*M4/4	*
*met(c)	*
*k[f#]	*
*G:	*
!LO:TX:a:t=Sachſen.	!
{4d	Nun
=1	=1
4.d	ſchürʒ'
8g	dich,
4.g	Gret-
8b/	-lein,
=2	=2
2b/	ſchürʒ'
4dd/}	dich,
{4dd/	wohl
=3	=3
4dd/	auf
4cc/	mit
4a	mir
4a	da-
=4	=4
4b/	-von
8b/L	da-
8aJ	.
4b/}	-von!
{4d	Das
=5	=5
4.d	Korn
8g	iſt
4.g	ab-
8b/	-ge-
=6	=6
2b/	-ſchnit-
4dd/}	-ten,
{4dd/	der
=7	=7
4dd/	Wein
4cc/	iſt
4a	ein-
4f#	-ge-
=8	=8
2g	-than.
4r}	.
{4dd/	Ach
=9	=9
4dd/	Häns-
4cc/	-chen
4a	lie-
4f#	-bes
=10	=10
(>4g	Häns-
4b/)	.
4dd/}	-chen
{4dd/	ſo
=11	=11
4dd/	laß
4cc/	mich
4a	bei
4f#	dir
=12	=12
(>4g	ſeyn,
4b/	.
4dd/)}	.
{4g	die
=13	=13
4.g	Wo-
8b/	-chen
4.b/	auf
8dd/	dem
=14	=14
2dd/	Fel-
4b/}	-de,
{4dd/	die
=15	=15
4dd/	Fei-
4cc/	-er-
4a	-tag'
4f#	bei'm
=16	=16
2g	Wein!
4r}	.
==	==
!!!AGN: Romanze, Ballade
!!!ONB: ESAC (Essen Associative Code) Database: ZUCCAL
!!!AMT: simple quadruple
!!!AIN: vox
!!!EED: Helmut Schaffrath
!!!EEV: 1.0
!!!RDF**kern: >= above
!!!GTL: II. Gau- Leuschen.
!!!URL-scan: https://www.digitale-sammlungen.de/de/view/bsb11160573?page=225
!!!ENC: Anna Maria Matuszewska
!!!EEV: 2025/02/04
*-	*-
